; generated by Slic3r 1.2.9 on 2017-12-28 at 17:46:36

; external perimeters extrusion width = 0.40mm
; perimeters extrusion width = 0.67mm
; infill extrusion width = 0.67mm
; solid infill extrusion width = 0.67mm
; top infill extrusion width = 0.67mm

M107
M190 S65 ; set bed temperature
M104 S200 ; set temperature
G28 ; home all axes
G1 Z5 F5000 ; lift nozzle

M109 S200 ; wait for temperature to be reached
G21 ; set units to millimeters
G90 ; use absolute coordinates
M82 ; use absolute distances for extrusion
G92 E0
G1 Z0.300 F7800.000
G1 E-2.00000 F2400.00000
G92 E0
G1 X95.003 Y95.786 F7800.000
G1 E2.00000 F2400.00000
G1 X96.753 Y94.327 E2.15217 F1800.000
G1 X99.999 Y93.464 E2.37660
G1 X120.000 Y93.464 E3.71278
G1 X122.243 Y93.861 E3.86495
G1 X124.214 Y95.003 E4.01712 F1800.000
G1 X125.673 Y96.753 E4.16929
G1 X126.536 Y99.999 E4.39372
G1 X126.536 Y120.000 E5.72989
G1 X126.139 Y122.243 E5.88206
G1 X124.997 Y124.214 E6.03424
G1 X123.247 Y125.673 E6.18641
G1 X120.000 Y126.536 E6.41084
G1 X99.999 Y126.536 E7.74701
G1 X97.757 Y126.139 E7.89918
G1 X95.786 Y124.997 E8.05135
G1 X94.327 Y123.247 E8.20352
G1 X93.464 Y120.000 E8.42795
G1 X93.464 Y99.999 E9.76413
G1 X93.861 Y97.757 E9.91630
G1 X94.973 Y95.838 E10.06446
G1 E8.06446 F2400.00000
G92 E0
G1 X119.165 Y119.165 F7800.000
G1 E2.00000 F2400.00000
G1 X100.835 Y119.165 E3.22453 F1800.000
G1 X100.835 Y100.835 E4.44905
G1 X119.165 Y100.835 E5.67358
G1 X119.165 Y119.105 E6.89410
G1 X119.701 Y119.701 F7800.000
G1 X100.299 Y119.701 E8.19019 F1800.000
G1 X100.299 Y100.299 E9.48628
G1 X119.701 Y100.299 E10.78238
G1 X119.701 Y119.641 E12.07446
G1 X119.354 Y119.500 F7800.000
G1 X118.843 Y101.424 F7800.000
G1 X118.576 Y101.157 E12.10026 F1800.000
G1 X117.802 Y101.157 E12.15313
G1 X118.843 Y102.198 E12.25369
G1 X118.843 Y102.972 E12.30655
G1 X117.028 Y101.157 E12.48187
G1 X116.253 Y101.157 E12.53473
G1 X118.843 Y103.747 E12.78480
G1 X118.843 Y104.521 E12.83766
G1 X115.479 Y101.157 E13.16250
G1 X114.705 Y101.157 E13.21536
G1 X118.843 Y105.295 E13.61495
G1 X118.843 Y106.069 E13.66781
G1 X113.931 Y101.157 E14.14215
G1 X113.157 Y101.157 E14.19501
G1 X118.843 Y106.843 E14.74412
G1 X118.843 Y107.618 E14.79698
G1 X112.382 Y101.157 E15.42084
G1 X111.608 Y101.157 E15.47370
G1 X118.843 Y108.392 E16.17231
G1 X118.843 Y109.166 E16.22517
G1 X110.834 Y101.157 E16.99854
G1 X110.060 Y101.157 E17.05141
G1 X118.843 Y109.940 E17.89953
G1 X118.843 Y110.714 E17.95240
G1 X109.286 Y101.157 E18.87528
G1 X108.512 Y101.157 E18.92814
G1 X118.843 Y111.488 E19.92578
G1 X118.843 Y112.263 E19.97864
G1 X107.737 Y101.157 E21.05104
G1 X106.963 Y101.157 E21.10390
G1 X118.843 Y113.037 E22.25106
G1 X118.843 Y113.811 E22.30392
G1 X106.189 Y101.157 E23.52583
G1 X105.415 Y101.157 E23.57869
G1 X118.843 Y114.585 E24.87536
G1 X118.843 Y115.359 E24.92822
G1 X104.641 Y101.157 E26.29965
G1 X103.866 Y101.157 E26.35251
G1 X118.843 Y116.134 E27.79869
G1 X118.843 Y116.908 E27.85155
G1 X103.092 Y101.157 E29.37249
G1 X102.318 Y101.157 E29.42535
G1 X118.843 Y117.682 E31.02105
G1 X118.843 Y118.456 E31.07391
G1 X101.544 Y101.157 E32.74436
G1 X101.157 Y101.544 E32.78174
G1 X118.456 Y118.843 E34.45219
G1 X117.682 Y118.843 E34.50505
G1 X101.157 Y102.318 E36.10074
G1 X101.157 Y103.092 E36.15360
G1 X116.908 Y118.843 E37.67454
G1 X116.134 Y118.843 E37.72740
G1 X101.157 Y103.866 E39.17358
G1 X101.157 Y104.641 E39.22644
G1 X115.359 Y118.843 E40.59786
G1 X114.585 Y118.843 E40.65072
G1 X101.157 Y105.415 E41.94739
G1 X101.157 Y106.189 E42.00025
G1 X113.811 Y118.843 E43.22215
G1 X113.037 Y118.843 E43.27502
G1 X101.157 Y106.963 E44.42217
G1 X101.157 Y107.737 E44.47503
G1 X112.263 Y118.843 E45.54742
G1 X111.488 Y118.843 E45.60029
G1 X101.157 Y108.512 E46.59792
G1 X101.157 Y109.286 E46.65079
G1 X110.714 Y118.843 E47.57367
G1 X109.940 Y118.843 E47.62653
G1 X101.157 Y110.060 E48.47465
G1 X101.157 Y110.834 E48.52751
G1 X109.166 Y118.843 E49.30088
G1 X108.392 Y118.843 E49.35374
G1 X101.157 Y111.608 E50.05236
G1 X101.157 Y112.383 E50.10522
G1 X107.617 Y118.843 E50.72907
G1 X106.843 Y118.843 E50.78193
G1 X101.157 Y113.157 E51.33103
G1 X101.157 Y113.931 E51.38389
G1 X106.069 Y118.843 E51.85824
G1 X105.295 Y118.843 E51.91110
G1 X101.157 Y114.705 E52.31068
G1 X101.157 Y115.479 E52.36354
G1 X104.521 Y118.843 E52.68837
G1 X103.747 Y118.843 E52.74123
G1 X101.157 Y116.253 E52.99131
G1 X101.157 Y117.028 E53.04417
G1 X102.972 Y118.843 E53.21948
G1 X102.198 Y118.843 E53.27234
G1 X101.157 Y117.802 E53.37290
G1 X101.157 Y118.576 E53.42576
G1 X101.424 Y118.843 E53.45157
M104 S195 ; set temperature
G1 Z0.500 F7800.000
G1 X119.308 Y119.308 F7800.000
G1 X100.692 Y119.308 E54.42414 F2400.000
G1 X100.692 Y100.692 E55.39671
G1 X119.308 Y100.692 E56.36928
G1 X119.308 Y119.248 E57.33871
G1 X119.800 Y119.800 F7800.000
G1 X100.200 Y119.800 E57.92069 F1200.000
G1 X100.200 Y100.200 E58.50267
G1 X119.800 Y100.200 E59.08465
G1 X119.800 Y119.740 E59.66485
G1 X119.454 Y119.600 F7800.000
G1 X118.620 Y118.927 F7800.000
G1 X118.927 Y118.620 E59.68779 F1200.000
G1 X118.927 Y117.721 E59.73540
G1 X117.721 Y118.927 E59.82567
G1 X116.821 Y118.927 E59.87328
G1 X118.927 Y116.821 E60.03089
G1 X118.927 Y115.921 E60.07850
G1 X115.921 Y118.927 E60.30343
G1 X115.021 Y118.927 E60.35105
G1 X118.927 Y115.021 E60.64332
G1 X118.927 Y114.121 E60.69093
G1 X114.121 Y118.927 E61.05053
G1 X113.221 Y118.927 E61.09814
G1 X118.927 Y113.221 E61.52508
G1 X118.927 Y112.321 E61.57269
G1 X112.321 Y118.927 E62.06696
G1 X111.421 Y118.927 E62.11457
G1 X118.927 Y111.421 E62.67617
G1 X118.927 Y110.522 E62.72378
G1 X110.522 Y118.927 E63.35271
G1 X109.622 Y118.927 E63.40033
G1 X118.927 Y109.622 E64.09659
G1 X118.927 Y108.722 E64.14420
G1 X108.722 Y118.927 E64.90780
G1 X107.822 Y118.927 E64.95541
G1 X118.927 Y107.822 E65.78635
G1 X118.927 Y106.922 E65.83396
G1 X106.922 Y118.927 E66.73222
G1 X106.022 Y118.927 E66.77983
G1 X118.927 Y106.022 E67.74543
G1 X118.927 Y105.122 E67.79304
G1 X105.122 Y118.927 E68.82597
G1 X104.222 Y118.927 E68.87358
G1 X118.927 Y104.223 E69.97385
G1 X118.927 Y103.323 E70.02146
G1 X103.323 Y118.927 E71.18905
G1 X102.423 Y118.927 E71.23666
G1 X118.927 Y102.423 E72.47159
G1 X118.927 Y101.523 E72.51920
G1 X101.523 Y118.927 E73.82146
G1 X101.073 Y118.477 E73.85513
G1 X118.477 Y101.073 E75.15739
G1 X117.577 Y101.073 E75.20500
G1 X101.073 Y117.577 E76.43992
G1 X101.073 Y116.677 E76.48754
G1 X116.677 Y101.073 E77.65513
G1 X115.777 Y101.073 E77.70274
G1 X101.073 Y115.777 E78.80300
G1 X101.073 Y114.878 E78.85061
G1 X114.878 Y101.073 E79.88354
G1 X113.978 Y101.073 E79.93115
G1 X101.073 Y113.978 E80.89674
G1 X101.073 Y113.078 E80.94436
G1 X113.078 Y101.073 E81.84262
G1 X112.178 Y101.073 E81.89023
G1 X101.073 Y112.178 E82.72116
G1 X101.073 Y111.278 E82.76877
G1 X111.278 Y101.073 E83.53237
G1 X110.378 Y101.073 E83.57998
G1 X101.073 Y110.378 E84.27624
G1 X101.073 Y109.478 E84.32385
G1 X109.478 Y101.073 E84.95278
G1 X108.578 Y101.073 E85.00039
G1 X101.073 Y108.578 E85.56199
G1 X101.073 Y107.679 E85.60960
G1 X107.679 Y101.073 E86.10387
G1 X106.779 Y101.073 E86.15148
G1 X101.073 Y106.779 E86.57841
G1 X101.073 Y105.879 E86.62603
G1 X105.879 Y101.073 E86.98563
G1 X104.979 Y101.073 E87.03324
G1 X101.073 Y104.979 E87.32550
G1 X101.073 Y104.079 E87.37312
G1 X104.079 Y101.073 E87.59805
G1 X103.179 Y101.073 E87.64566
G1 X101.073 Y103.179 E87.80326
G1 X101.073 Y102.279 E87.85088
G1 X102.279 Y101.073 E87.94114
G1 X101.380 Y101.073 E87.98876
G1 X101.073 Y101.380 E88.01169
G1 Z0.700 F7800.000
G1 X119.308 Y119.308 F7800.000
G1 X100.692 Y119.308 E88.98426 F2400.000
G1 X100.692 Y100.692 E89.95683
G1 X119.308 Y100.692 E90.92940
G1 X119.308 Y119.248 E91.89884
G1 X119.800 Y119.800 F7800.000
G1 X100.200 Y119.800 E92.48082 F1200.000
G1 X100.200 Y100.200 E93.06280
G1 X119.800 Y100.200 E93.64478
G1 X119.800 Y119.740 E94.22497
G1 X119.454 Y119.600 F7800.000
G1 X118.927 Y101.380 F7800.000
G1 X118.620 Y101.073 E94.24791 F1200.000
G1 X117.721 Y101.073 E94.29552
G1 X118.927 Y102.279 E94.38580
G1 X118.927 Y103.179 E94.43341
G1 X116.821 Y101.073 E94.59101
G1 X115.921 Y101.073 E94.63862
G1 X118.927 Y104.079 E94.86356
G1 X118.927 Y104.979 E94.91117
G1 X115.021 Y101.073 E95.20344
G1 X114.121 Y101.073 E95.25105
G1 X118.927 Y105.879 E95.61066
G1 X118.927 Y106.779 E95.65827
G1 X113.221 Y101.073 E96.08520
G1 X112.321 Y101.073 E96.13282
G1 X118.927 Y107.679 E96.62708
G1 X118.927 Y108.579 E96.67469
G1 X111.421 Y101.073 E97.23630
G1 X110.522 Y101.073 E97.28391
G1 X118.927 Y109.478 E97.91284
G1 X118.927 Y110.378 E97.96045
G1 X109.622 Y101.073 E98.65672
G1 X108.722 Y101.073 E98.70433
G1 X118.927 Y111.278 E99.46793
G1 X118.927 Y112.178 E99.51554
G1 X107.822 Y101.073 E100.34647
G1 X106.922 Y101.073 E100.39408
G1 X118.927 Y113.078 E101.29235
G1 X118.927 Y113.978 E101.33996
G1 X106.022 Y101.073 E102.30556
G1 X105.122 Y101.073 E102.35317
G1 X118.927 Y114.878 E103.38610
G1 X118.927 Y115.777 E103.43371
G1 X104.223 Y101.073 E104.53397
G1 X103.323 Y101.073 E104.58158
G1 X118.927 Y116.677 E105.74918
G1 X118.927 Y117.577 E105.79679
G1 X102.423 Y101.073 E107.03172
G1 X101.523 Y101.073 E107.07933
G1 X118.927 Y118.477 E108.38159
G1 X118.477 Y118.927 E108.41526
G1 X101.073 Y101.523 E109.71751
G1 X101.073 Y102.423 E109.76512
G1 X117.577 Y118.927 E111.00005
G1 X116.677 Y118.927 E111.04766
G1 X101.073 Y103.323 E112.21525
G1 X101.073 Y104.223 E112.26287
G1 X115.777 Y118.927 E113.36313
G1 X114.878 Y118.927 E113.41074
G1 X101.073 Y105.122 E114.44366
G1 X101.073 Y106.022 E114.49128
G1 X113.978 Y118.927 E115.45687
G1 X113.078 Y118.927 E115.50448
G1 X101.073 Y106.922 E116.40274
G1 X101.073 Y107.822 E116.45035
G1 X112.178 Y118.927 E117.28128
G1 X111.278 Y118.927 E117.32890
G1 X101.073 Y108.722 E118.09249
G1 X101.073 Y109.622 E118.14010
G1 X110.378 Y118.927 E118.83637
G1 X109.478 Y118.927 E118.88398
G1 X101.073 Y110.522 E119.51291
G1 X101.073 Y111.422 E119.56052
G1 X108.578 Y118.927 E120.12212
G1 X107.679 Y118.927 E120.16973
G1 X101.073 Y112.321 E120.66400
G1 X101.073 Y113.221 E120.71161
G1 X106.779 Y118.927 E121.13854
G1 X105.879 Y118.927 E121.18615
G1 X101.073 Y114.121 E121.54575
G1 X101.073 Y115.021 E121.59336
G1 X104.979 Y118.927 E121.88563
G1 X104.079 Y118.927 E121.93324
G1 X101.073 Y115.921 E122.15818
G1 X101.073 Y116.821 E122.20579
G1 X103.179 Y118.927 E122.36339
G1 X102.279 Y118.927 E122.41100
G1 X101.073 Y117.721 E122.50127
G1 X101.073 Y118.620 E122.54888
G1 X101.380 Y118.927 E122.57182
M106 S99.45
G1 Z0.900 F7800.000
G1 X119.308 Y119.308 F7800.000
G1 X100.692 Y119.308 E123.54439 F2400.000
G1 X100.692 Y100.692 E124.51696
G1 X119.308 Y100.692 E125.48953
G1 X119.308 Y119.248 E126.45897
G1 X119.800 Y119.800 F7800.000
G1 X100.200 Y119.800 E127.04094 F1200.000
G1 X100.200 Y100.200 E127.62292
G1 X119.800 Y100.200 E128.20490
G1 X119.800 Y119.740 E128.78510
G1 X119.454 Y119.600 F7800.000
G1 X118.774 Y113.081 F7800.000
G1 X115.135 Y112.106 E128.98194 F4800.000
G1 X111.458 Y115.783 E129.25359
G1 X112.259 Y118.774 E129.41538
G1 X118.774 Y118.774 E129.75572
G1 X118.774 Y113.081 E130.05313
G1 X118.774 Y104.408 F7800.000
G1 X118.774 Y101.226 E130.21936 F4800.000
G1 X116.231 Y101.226 E130.35222
G1 X116.859 Y103.569 E130.47896
G1 X113.182 Y107.246 E130.75061
G1 X109.211 Y106.182 E130.96541
G1 X105.534 Y109.859 E131.23706
G1 X106.598 Y113.830 E131.45185
G1 X102.921 Y117.507 E131.72350
G1 X101.226 Y117.052 E131.81519
G1 X101.226 Y118.774 E131.90513
G1 X103.586 Y118.774 E132.02843
G1 X103.366 Y117.951 E132.07294
G1 X107.042 Y114.274 E132.34459
G1 X111.014 Y115.338 E132.55938
G1 X114.690 Y111.662 E132.83103
G1 X113.626 Y107.690 E133.04582
G1 X117.303 Y104.014 E133.31747
G1 X118.774 Y104.408 E133.39703
G1 X107.702 Y101.767 F7800.000
G1 X108.243 Y101.226 E133.43695 F4800.000
G1 X107.354 Y101.226 E133.48338
G1 X107.258 Y101.322 E133.49047
G1 X106.900 Y101.226 E133.50985
G1 X102.319 Y101.226 E133.74918
G1 X101.226 Y102.319 E133.82990
G1 X101.226 Y108.379 E134.14653
G1 X105.090 Y109.414 E134.35550
G1 X108.766 Y105.738 E134.62715
G1 X107.702 Y101.767 E134.84194
G1 X101.226 Y101.430 F7800.000
G1 X101.430 Y101.226 E134.85701 F4800.000
G1 X101.226 Y101.226 E134.86766
G1 X101.226 Y101.430 E134.87832
G1 Z1.100 F7800.000
G1 X119.308 Y119.308 F7800.000
G1 X100.692 Y119.308 E135.85089 F2400.000
G1 X100.692 Y100.692 E136.82346
G1 X119.308 Y100.692 E137.79603
G1 X119.308 Y119.248 E138.76546
G1 X119.800 Y119.800 F7800.000
G1 X100.200 Y119.800 E139.34744 F1200.000
G1 X100.200 Y100.200 E139.92942
G1 X119.800 Y100.200 E140.51140
G1 X119.800 Y119.740 E141.09160
G1 X119.454 Y119.600 F7800.000
G1 X118.774 Y104.408 F7800.000
G1 X117.303 Y104.014 E141.17116 F4800.000
G1 X116.556 Y101.226 E141.32193
G1 X118.774 Y101.226 E141.43780
G1 X118.774 Y104.408 E141.60403
G1 X116.696 Y104.176 F7800.000
G1 X113.789 Y107.083 E141.81882 F4800.000
G1 X115.135 Y112.106 E142.09047
G1 X118.774 Y113.081 E142.28731
G1 X118.774 Y118.774 E142.58472
G1 X112.585 Y118.774 E142.90807
G1 X111.620 Y115.176 E143.10269
G1 X114.528 Y112.269 E143.31748
G1 X113.182 Y107.246 E143.58913
G1 X109.211 Y106.182 E143.80392
G1 X107.883 Y101.226 E144.07197
G1 X115.905 Y101.226 E144.49111
G1 X116.696 Y104.176 E144.65068
G1 X107.258 Y101.322 F7800.000
G1 X108.604 Y106.345 E144.92233 F4800.000
G1 X105.697 Y109.252 E145.13712
G1 X107.042 Y114.274 E145.40877
G1 X111.014 Y115.338 E145.62357
G1 X111.934 Y118.774 E145.80939
G1 X103.912 Y118.774 E146.22853
G1 X103.528 Y117.344 E146.30587
G1 X106.435 Y114.437 E146.52066
G1 X105.090 Y109.414 E146.79231
G1 X101.226 Y108.379 E147.00128
G1 X101.226 Y101.874 E147.34111
G1 X101.874 Y101.226 E147.38901
G1 X106.900 Y101.226 E147.65155
G1 X107.258 Y101.322 E147.67093
G1 X102.921 Y117.507 F7800.000
G1 X103.261 Y118.774 E147.73947 F4800.000
G1 X101.226 Y118.774 E147.84578
G1 X101.226 Y117.052 E147.93571
G1 X102.921 Y117.507 E148.02741
G1 Z1.300 F7800.000
G1 X119.308 Y119.308 F7800.000
G1 X100.692 Y119.308 E148.99998 F2400.000
G1 X100.692 Y100.692 E149.97255
G1 X119.308 Y100.692 E150.94512
G1 X119.308 Y119.248 E151.91455
G1 X119.800 Y119.800 F7800.000
G1 X100.200 Y119.800 E152.49653 F1200.000
G1 X100.200 Y100.200 E153.07851
G1 X119.800 Y100.200 E153.66049
G1 X119.800 Y119.740 E154.24069
G1 X119.454 Y119.600 F7800.000
G1 X118.774 Y104.083 F7800.000
G1 X116.859 Y103.569 E154.34428 F4800.000
G1 X116.231 Y101.226 E154.47102
G1 X118.774 Y101.226 E154.60388
G1 X118.774 Y104.083 E154.75311
G1 X107.702 Y101.767 F7800.000
G1 X108.766 Y105.738 E154.96791 F4800.000
G1 X113.789 Y107.084 E155.23956
G1 X116.696 Y104.176 E155.45435
G1 X118.774 Y104.733 E155.56674
G1 X118.774 Y112.756 E155.98588
G1 X114.690 Y111.662 E156.20675
G1 X113.626 Y107.690 E156.42154
G1 X108.604 Y106.345 E156.69319
G1 X105.697 Y109.252 E156.90798
G1 X101.226 Y108.054 E157.14978
G1 X101.226 Y101.874 E157.47262
G1 X101.874 Y101.226 E157.52052
G1 X105.686 Y101.226 E157.71964
G1 X107.702 Y101.767 E157.82871
G1 X105.534 Y109.859 F7800.000
G1 X106.598 Y113.830 E158.04350 F4800.000
G1 X111.620 Y115.176 E158.31515
G1 X114.528 Y112.269 E158.52994
G1 X118.774 Y113.406 E158.75961
G1 X118.774 Y118.774 E159.04003
G1 X112.259 Y118.774 E159.38037
G1 X111.458 Y115.783 E159.54216
G1 X106.435 Y114.437 E159.81381
G1 X103.528 Y117.344 E160.02861
G1 X101.226 Y116.727 E160.15312
G1 X101.226 Y108.704 E160.57226
G1 X105.534 Y109.859 E160.80526
G1 X103.366 Y117.951 F7800.000
G1 X103.586 Y118.774 E160.84977 F4800.000
G1 X101.226 Y118.774 E160.97307
G1 X101.226 Y117.378 E161.04602
G1 X103.366 Y117.951 E161.16174
G1 Z1.500 F7800.000
G1 X119.308 Y119.308 F7800.000
G1 X100.692 Y119.308 E162.13431 F2400.000
G1 X100.692 Y100.692 E163.10688
G1 X119.308 Y100.692 E164.07945
